public/Insta.svg

<svg xmlns="http://www.w3.org/2000/svg" width="20" height="20" fill="none"><path fill="#fff" d="M15 0H5C2.24 0 0 2.24 0 5v10c0 2.76 2.24 5 5 5h10c2.76 0 5-2.24 5-5V5c0-2.76-2.24-5-5-5m-5 15c-2.76 0-5-2.24-5-5s2.24-5 5-5 5 2.24 5 5-2.24 5-5 5m5.35-9.38c-.55 0-1-.45-1-1s.45-1 1-1 1 .45 1 1-.45 1-1 1"/><path fill="#fff" d="M10 13a3 3 0 1 0 0-6 3 3 0 0 0 0 6"/></svg>

<svg width="20" height="20" viewBox="0 0 20 20" fill="none" xmlns="http://www.w3.org/2000/svg">
<path d="M15 0H5C2.24 0 0 2.24 0 5V15C0 17.76 2.24 20 5 20H15C17.76 20 20 17.76 20 15V5C20 2.24 17.76 0 15 0ZM10 15C7.24 15 5 12.76 5 10C5 7.24 7.24 5 10 5C12.76 5 15 7.24 15 10C15 12.76 12.76 15 10 15ZM15.35 5.62C14.8 5.62 14.35 5.17 14.35 4.62C14.35 4.07 14.8 3.62 15.35 3.62C15.9 3.62 16.35 4.07 16.35 4.62C16.35 5.17 15.9 5.62 15.35 5.62Z" fill="white"/>
<path d="M10 13C11.6569 13 13 11.6569 13 10C13 8.34315 11.6569 7 10 7C8.34315 7 7 8.34315 7 10C7 11.6569 8.34315 13 10 13Z" fill="white"/>
</svg>
